icons/text.svg

<svg width="12" height="12" xmlns="http://www.w3.org/2000/svg"><path d="M12,1 L12,3 C12,3.55228475 11.5522847,4 11,4 C10.4477153,4 10,3.55228475 10,3 L10,2 L7,2 L7,10 L8,10 C8.55228475,10 9,10.4477153 9,11 C9,11.5522847 8.55228475,12 8,12 L4,12 C3.44771525,12 3,11.5522847 3,11 C3,10.4477153 3.44771525,10 4,10 L5,10 L5,2 L2,2 L2,3 C2,3.55228475 1.55228475,4 1,4 C0.44771525,4 0,3.55228475 0,3 L0,1 C0,0.44771525 0.44771525,0 1,0 L11,0 C11.5522847,0 12,0.44771525 12,1 Z"/></svg>

<svg width="12" height="12" xmlns="http://www.w3.org/2000/svg" fill="currentColor"><path d="M12 1v2a1 1 0 0 1-2 0V2H7v8h1a1 1 0 0 1 0 2H4a1 1 0 0 1 0-2h1V2H2v1a1 1 0 1 1-2 0V1a1 1 0 0 1 1-1h10a1 1 0 0 1 1 1Z"/></svg>
